Adwaita++/actions/16/view-time-schedule-child-insert.svg

<svg height="16" viewBox="0 0 16 16" width="16" xmlns="http://www.w3.org/2000/svg">
  <path d="m3 1c-2.25 0-2 2-2 2v6h2v-3h4v-2h-4v-1h10v4h-6v2h8v-6c0-2-2-2-2-2zm-1.140625 9c-.96374 0-.8554687.857422-.8554688.857422v5.142578h5.9960938v-5.142578c0-.857-.8574219-.857422-.8574219-.857422zm10.140625 0v2h-2v2h2v2h2v-2h2v-2h-2v-2z" fill="#474747"/>
</svg>

<svg xmlns="http://www.w3.org/2000/svg" width="16" height="16" viewBox="0 0 16 16">
 <defs>
  <style id="current-color-scheme" type="text/css">
   .ColorScheme-Text { color:#474747; } .ColorScheme-Highlight { color:#4285f4; }
  </style>
 </defs>
 <path style="fill:currentColor" class="ColorScheme-Text" d="M 3 1 C 0.75 1 1 3 1 3 L 1 9 L 3 9 L 3 6 L 7 6 L 7 4 L 3 4 L 3 3 L 13 3 L 13 7 L 7 7 L 7 9 L 15 9 L 15 3 C 15 1 13 1 13 1 L 3 1 z M 1.859375 10 C 0.895635 10 1.0039063 10.857422 1.0039062 10.857422 L 1.0039062 16 L 7 16 L 7 10.857422 C 7 10.000422 6.1425781 10 6.1425781 10 L 1.859375 10 z M 12 10 L 12 12 L 10 12 L 10 14 L 12 14 L 12 16 L 14 16 L 14 14 L 16 14 L 16 12 L 14 12 L 14 10 L 12 10 z"/>
</svg>
